raw-svg/list-check.svg

<svg fill="none" height="24" viewBox="0 0 24 24" width="24" xmlns="http://www.w3.org/2000/svg"><path clip-rule="evenodd" d="m7.53033 7.03033c.29289-.29289.29289-.76777 0-1.06066s-.76777-.29289-1.06066 0l-1.46967 1.46967-.46967-.46967c-.29289-.29289-.76777-.29289-1.06066 0s-.29289.76777 0 1.06066l1 1c.29289.29289.76777.29289 1.06066 0zm2.46967.21967c-.41421 0-.75.33579-.75.75s.33579.75.75.75h10c.4142 0 .75-.33579.75-.75s-.3358-.75-.75-.75zm0 4c-.41421 0-.75.3358-.75.75s.33579.75.75.75h10c.4142 0 .75-.3358.75-.75s-.3358-.75-.75-.75zm10 6h-9.875c-.41421 0-.75-.3358-.75-.75s.33579-.75.75-.75h9.875c.4142 0 .75.3358.75.75s-.3358.75-.75.75zm-12.46967-7.28033c.29289.29293.29289.76773 0 1.06063l-2 2c-.29289.2929-.76777.2929-1.06066 0l-1-1c-.29289-.2929-.29289-.7677 0-1.0606s.76777-.2929 1.06066 0l.46967.4696 1.46967-1.46963c.29289-.29289.76777-.29289 1.06066 0zm0 6.06063c.29289-.2929.29289-.7677 0-1.0606s-.76777-.2929-1.06066 0l-1.46967 1.4696-.46967-.4696c-.29289-.2929-.76777-.2929-1.06066 0s-.29289.7677 0 1.0606l1 1c.29289.2929.76777.2929 1.06066 0z" fill="#000" fill-rule="evenodd"/></svg>

<svg width="24" height="24" viewBox="0 0 24 24" fill="none" xmlns="http://www.w3.org/2000/svg">
<path fill-rule="evenodd" clip-rule="evenodd" d="M7.53033 7.03033C7.82322 6.73744 7.82322 6.26256 7.53033 5.96967C7.23744 5.67678 6.76256 5.67678 6.46967 5.96967L5 7.43934L4.53033 6.96967C4.23744 6.67678 3.76256 6.67678 3.46967 6.96967C3.17678 7.26256 3.17678 7.73744 3.46967 8.03033L4.46967 9.03033C4.76256 9.32322 5.23744 9.32322 5.53033 9.03033L7.53033 7.03033ZM10 7.25C9.58579 7.25 9.25 7.58579 9.25 8C9.25 8.41421 9.58579 8.75 10 8.75H20C20.4142 8.75 20.75 8.41421 20.75 8C20.75 7.58579 20.4142 7.25 20 7.25H10ZM10 11.25C9.58579 11.25 9.25 11.5858 9.25 12C9.25 12.4142 9.58579 12.75 10 12.75H20C20.4142 12.75 20.75 12.4142 20.75 12C20.75 11.5858 20.4142 11.25 20 11.25H10ZM20 17.25H10.125C9.71079 17.25 9.375 16.9142 9.375 16.5C9.375 16.0858 9.71079 15.75 10.125 15.75H20C20.4142 15.75 20.75 16.0858 20.75 16.5C20.75 16.9142 20.4142 17.25 20 17.25ZM7.53033 9.96967C7.82322 10.2626 7.82322 10.7374 7.53033 11.0303L5.53033 13.0303C5.23744 13.3232 4.76256 13.3232 4.46967 13.0303L3.46967 12.0303C3.17678 11.7374 3.17678 11.2626 3.46967 10.9697C3.76256 10.6768 4.23744 10.6768 4.53033 10.9697L5 11.4393L6.46967 9.96967C6.76256 9.67678 7.23744 9.67678 7.53033 9.96967ZM7.53033 16.0303C7.82322 15.7374 7.82322 15.2626 7.53033 14.9697C7.23744 14.6768 6.76256 14.6768 6.46967 14.9697L5 16.4393L4.53033 15.9697C4.23744 15.6768 3.76256 15.6768 3.46967 15.9697C3.17678 16.2626 3.17678 16.7374 3.46967 17.0303L4.46967 18.0303C4.76256 18.3232 5.23744 18.3232 5.53033 18.0303L7.53033 16.0303Z" fill="black"/>
</svg>
